X:340
T:Martin Wynne's No. 2
M:4/4
L:1/8
K:Bm
FBAF E2 FE|DB, B,2 DB, A,2|B,E E2 FEDE| FABc dcBA|
FBAF E2 FE|DB, B,2 DB,A,2| B,E E2 FEDE| FBBA B4:|
FBAF A2 FA|Beeg fdde|fbaf egfe|dBAF BAFE|
FBAF A2 FA|Beeg fdde|fbaf egfe|dBAF B4:|
